X: 7755
T: Columba
R: waltz
M: 3/4
K: Eminor
GF|E2 A3 G|A4 AB|c3 d e2|a4 g z|g3 a fd|e2 e=fed|
c2 edcA|B2 cBAG|E2 A3 G|A4 AB|c2 d3 B|A2 G4-|G4||
g4 gf|g4 gf|g2 a3 f|e2 d4|g4 gf|g4 gf|g2 a2 f2|e6|
g4 gf|g4 gf|g2 a3 f|e2 d2 gf|e3 d BG|A3 G EF|G6-|G4||

